Numix-GalliumOS/22/status/yd-busy1.svg

<?xml version="1.0" encoding="UTF-8" standalone="no"?>
<!-- Created with Inkscape (http://www.inkscape.org/) -->

<svg
   xmlns:dc="http://purl.org/dc/elements/1.1/"
   xmlns:cc="http://creativecommons.org/ns#"
   xmlns:rdf="http://www.w3.org/1999/02/22-rdf-syntax-ns#"
   xmlns:svg="http://www.w3.org/2000/svg"
   xmlns="http://www.w3.org/2000/svg"
   xmlns:sodipodi="http://sodipodi.sourceforge.net/DTD/sodipodi-0.dtd"
   xmlns:inkscape="http://www.inkscape.org/namespaces/inkscape"
   id="svg2"
   version="1.1"
   inkscape:version="0.91 r"
   width="22"
   height="22"
   viewBox="0 0 22 22"
   sodipodi:docname="yd-busy1.svg">
  <metadata
     id="metadata8">
    <rdf:RDF>
      <cc:Work
         rdf:about="">
        <dc:format>image/svg+xml</dc:format>
        <dc:type
           rdf:resource="http://purl.org/dc/dcmitype/StillImage" />
        <dc:title />
      </cc:Work>
    </rdf:RDF>
  </metadata>
  <defs
     id="defs6">
    <clipPath
       id="clipPath-408241621">
      <g
         id="g3616"
         transform="translate(0,-1004.3622)">
        <path
           id="path3618"
           transform="matrix(15.333333,0,0,11.5,414.99999,878.8622)"
           d="m -24,13 c 0,1.105 -0.672,2 -1.5,2 -0.828,0 -1.5,-0.895 -1.5,-2 0,-1.105 0.672,-2 1.5,-2 0.828,0 1.5,0.895 1.5,2 z"
           inkscape:connector-curvature="0"
           style="fill:#1890d0" />
      </g>
    </clipPath>
    <clipPath
       id="clipPath-408241621-2">
      <g
         id="g3616-2"
         transform="translate(0,-1004.3622)">
        <path
           id="path3618-9"
           transform="matrix(15.333333,0,0,11.5,414.99999,878.8622)"
           d="m -24,13 c 0,1.105 -0.672,2 -1.5,2 -0.828,0 -1.5,-0.895 -1.5,-2 0,-1.105 0.672,-2 1.5,-2 0.828,0 1.5,0.895 1.5,2 z"
           inkscape:connector-curvature="0"
           style="fill:#1890d0" />
      </g>
    </clipPath>
    <clipPath
       id="clipPath-408241621-2-6">
      <g
         id="g3616-2-4"
         transform="translate(0,-1004.3622)">
        <path
           id="path3618-9-4"
           transform="matrix(15.333333,0,0,11.5,414.99999,878.8622)"
           d="m -24,13 c 0,1.105 -0.672,2 -1.5,2 -0.828,0 -1.5,-0.895 -1.5,-2 0,-1.105 0.672,-2 1.5,-2 0.828,0 1.5,0.895 1.5,2 z"
           inkscape:connector-curvature="0"
           style="fill:#1890d0" />
      </g>
    </clipPath>
  </defs>
  <sodipodi:namedview
     pagecolor="#ffffff"
     bordercolor="#666666"
     borderopacity="1"
     objecttolerance="10"
     gridtolerance="10"
     guidetolerance="10"
     inkscape:pageopacity="0"
     inkscape:pageshadow="2"
     inkscape:window-width="1366"
     inkscape:window-height="747"
     id="namedview4"
     showgrid="true"
     showguides="false"
     inkscape:zoom="22.627416"
     inkscape:cx="11.990585"
     inkscape:cy="12.354745"
     inkscape:window-x="0"
     inkscape:window-y="21"
     inkscape:window-maximized="1"
     inkscape:current-layer="svg2">
    <inkscape:grid
       type="xygrid"
       id="grid4142" />
  </sodipodi:namedview>
  <path
     style="opacity:1;fill:#ececec;fill-opacity:0.94117647;fill-rule:nonzero;stroke:none;stroke-width:1;stroke-linecap:square;stroke-linejoin:round;stroke-miterlimit:4;stroke-dasharray:none;stroke-dashoffset:0;stroke-opacity:1"
     d="M 11.001953 6.25 C 9.215201 6.25 7.6263649 7.2010774 6.75 8.6191406 L 7.1269531 8.7636719 C 7.9464175 7.4486953 9.3906232 6.59375 11.001953 6.59375 C 12.188612 6.59375 13.293448 7.0333214 14.125 7.7871094 C 14.290552 7.7646853 14.451172 7.7474743 14.613281 7.7285156 C 14.441576 7.5575901 14.258215 7.4001406 14.0625 7.2558594 C 13.93503 7.1972507 13.802842 7.1494812 13.677734 7.0859375 C 13.376251 6.9328099 13.151629 6.7807921 12.798828 6.578125 C 12.236001 6.3722135 11.633579 6.25 11.001953 6.25 z M 11.001953 8.09375 C 10.164587 8.09375 9.3851387 8.4290923 8.8203125 8.9707031 C 9.1937665 8.8561919 9.5709101 8.7437037 9.9589844 8.6386719 C 10.58553 8.4690978 11.198379 8.3283736 11.802734 8.1992188 C 11.546875 8.1360214 11.281935 8.09375 11.001953 8.09375 z M 18.263672 8.4003906 L 17.080078 12.511719 L 17.333984 12.609375 L 17.037109 13.318359 C 17.026014 13.344971 17.009485 13.368131 16.998047 13.394531 C 19.635302 12.119078 21.246464 10.701843 20.96875 9.6542969 C 20.78945 8.9741284 19.817658 8.5381693 18.263672 8.4003906 z M 15.222656 8.4550781 C 15.076719 8.4695238 14.920289 8.4942851 14.771484 8.5117188 C 14.911858 8.7116381 15.039586 8.920897 15.146484 9.1464844 L 15.492188 9.875 L 14.945312 10.087891 L 16.041016 10.699219 L 16.363281 9.5839844 L 15.892578 9.765625 L 15.599609 9.1230469 C 15.492859 8.8882901 15.364208 8.6666935 15.222656 8.4550781 z M 12.980469 8.7832031 C 12.075522 8.9479781 11.150985 9.1455949 10.216797 9.3984375 C 9.4820738 9.5972843 8.7791685 9.8175653 8.1015625 10.048828 L 7.8632812 10.636719 L 10.597656 12.107422 L 8.6640625 12.863281 C 9.2310168 13.506563 10.075442 13.90625 11.001953 13.90625 C 12.288714 13.90625 13.406845 13.1696 13.871094 12.054688 L 14.152344 11.380859 L 14.253906 11.419922 L 11.431641 9.8496094 L 13.335938 9.1054688 C 13.229321 8.985149 13.105161 8.8841489 12.980469 8.7832031 z M 5.9570312 11.316406 L 5.640625 12.386719 L 6.1210938 12.214844 L 6.4042969 12.849609 C 7.0681803 14.337687 8.5266911 15.418378 10.203125 15.683594 C 10.628507 15.589677 11.057246 15.487292 11.494141 15.373047 C 11.331324 15.390723 11.169 15.40625 11.001953 15.40625 C 9.2143277 15.40625 7.5937843 14.393015 6.8535156 12.818359 L 6.5117188 12.091797 L 7.0273438 11.890625 L 5.9570312 11.316406 z M 4.2851562 11.681641 C 2.0902381 12.854733 0.78030322 14.102248 1.03125 15.048828 C 1.3419347 16.22726 3.9526235 16.601048 7.4453125 16.164062 C 6.6274735 15.623489 5.9270242 14.912016 5.4199219 14.060547 L 3.3613281 14.798828 L 4.2851562 11.681641 z M 14.869141 13.265625 C 14.407192 13.993643 13.750927 14.56702 12.986328 14.939453 C 13.437357 14.799633 13.875551 14.657517 14.300781 14.505859 C 14.663211 14.187393 14.984536 13.82298 15.244141 13.410156 L 14.869141 13.265625 z "
     id="path4138" />
  <g
     id="g4263"
     transform="matrix(0.42307692,0,0,0.42307692,6.3606939,7.5192308)">
    <g
       style="fill:#ececec;fill-opacity:1"
       id="g3628"
       transform="matrix(0.34782609,0,0,0.34782609,2.6435901,2.6456559)" />
    <g
       transform="matrix(0.49988464,0,0,0.49988464,-37.411065,7.9950011)"
       clip-path="url(#clipPath-408241621)"
       id="g3650">
      <!-- color: #004794 -->
      <g
         id="g3652" />
    </g>
  </g>
  <g
     id="g4174">
    <g
       style="fill:#ececec;fill-opacity:1"
       id="g3628-8"
       transform="matrix(0.34782609,0,0,0.34782609,2.6435901,2.6456559)">
      <path
         inkscape:connector-curvature="0"
         id="path3630"
         transform="matrix(2.875,0,0,2.875,97.067647,-33.481261)"
         d="m -25.40625,14.5 c 2.303968,0 4.367461,1.302964 5.28125,3.3125 l 1.21875,-0.46875 -1,3.46875 -3.3125,-1.84375 1.28125,-0.5 c -0.620857,-1.310198 -1.9541,-2.125 -3.46875,-2.125 -1.572637,0 -2.996131,0.939574 -3.5625,2.34375 L -30.75,18 c 0.844805,-2.103515 2.984794,-3.5 5.34375,-3.5 z m -5.5,4.71875 3.3125,1.78125 -1.28125,0.5 c 0.613358,1.304699 1.964097,2.15625 3.46875,2.15625 1.575636,0 2.978635,-0.910324 3.5625,-2.3125 l 1.78125,0.6875 c -0.876798,2.103015 -2.979296,3.46875 -5.34375,3.46875 -2.292471,0 -4.386956,-1.339213 -5.28125,-3.34375 l -1.21875,0.4375 z"
         style="fill:#ececec;fill-opacity:1"
         sodipodi:nodetypes="scccccsccscccsccsccc" />
    </g>
    <g
       transform="matrix(0.49988464,0,0,0.49988464,-37.411065,7.9950011)"
       clip-path="url(#clipPath-408241621-2)"
       id="g3650-3">
      <!-- color: #004794 -->
      <g
         id="g3652-1" />
    </g>
  </g>
  <g
     id="g4174-4"
     style="stroke:#000000;stroke-width:1.5;stroke-miterlimit:4;stroke-dasharray:none;stroke-opacity:1"
     transform="translate(8.0007713,5.9997246)">
    <g
       style="fill:#ececec;fill-opacity:1;stroke:#000000;stroke-width:4.3125;stroke-miterlimit:4;stroke-dasharray:none;stroke-opacity:1"
       id="g3628-8-4"
       transform="matrix(0.34782609,0,0,0.34782609,2.6435901,2.6456559)" />
    <g
       transform="matrix(0.49988464,0,0,0.49988464,-37.411065,7.9950011)"
       clip-path="url(#clipPath-408241621-2-6)"
       id="g3650-3-9"
       style="stroke:#000000;stroke-width:3.00069237;stroke-miterlimit:4;stroke-dasharray:none;stroke-opacity:1">
      <!-- color: #004794 -->
      <g
         id="g3652-1-7"
         style="stroke:#000000;stroke-width:3.00069237;stroke-miterlimit:4;stroke-dasharray:none;stroke-opacity:1" />
    </g>
  </g>
</svg>

<svg xmlns="http://www.w3.org/2000/svg" viewBox="0 0 22 22">
 <path d="m 11 6.25 c -1.787 0 -3.376 0.951 -4.252 2.369 l 0.377 0.145 c 0.819 -1.315 2.264 -2.17 3.875 -2.17 c 1.187 0 2.291 0.44 3.123 1.193 c 0.166 -0.022 0.326 -0.04 0.488 -0.059 c -0.172 -0.171 -0.355 -0.328 -0.551 -0.473 c -0.127 -0.059 -0.26 -0.106 -0.385 -0.17 c -0.301 -0.153 -0.526 -0.305 -0.879 -0.508 c -0.563 -0.206 -1.165 -0.328 -1.797 -0.328 z m 0 1.844 c -0.837 0 -1.617 0.335 -2.182 0.877 c 0.373 -0.115 0.751 -0.227 1.139 -0.332 c 0.627 -0.17 1.239 -0.31 1.844 -0.439 c -0.256 -0.063 -0.521 -0.105 -0.801 -0.105 z m 7.262 0.307 l -1.184 4.111 l 0.254 0.098 l -0.297 0.709 c -0.011 0.027 -0.028 0.05 -0.039 0.076 c 2.637 -1.275 4.248 -2.693 3.971 -3.74 c -0.179 -0.68 -1.151 -1.116 -2.705 -1.254 z m -3.041 0.055 c -0.146 0.014 -0.302 0.039 -0.451 0.057 c 0.14 0.2 0.268 0.409 0.375 0.635 l 0.346 0.729 l -0.547 0.213 l 1.096 0.611 l 0.322 -1.115 l -0.471 0.182 l -0.293 -0.643 c -0.107 -0.235 -0.235 -0.456 -0.377 -0.668 z m -2.242 0.328 c -0.905 0.165 -1.829 0.362 -2.764 0.615 c -0.735 0.199 -1.438 0.419 -2.115 0.65 l -0.238 0.588 l 2.734 1.471 l -1.934 0.756 c 0.567 0.643 1.411 1.043 2.338 1.043 c 1.287 0 2.405 -0.737 2.869 -1.852 l 0.281 -0.674 l 0.102 0.039 l -2.822 -1.57 l 1.904 -0.744 c -0.107 -0.12 -0.231 -0.221 -0.355 -0.322 z m -7.02 2.533 l -0.316 1.07 l 0.48 -0.172 l 0.283 0.635 c 0.664 1.488 2.122 2.569 3.799 2.834 c 0.425 -0.094 0.854 -0.196 1.291 -0.311 c -0.163 0.018 -0.325 0.033 -0.492 0.033 c -1.788 0 -3.408 -1.013 -4.148 -2.588 l -0.342 -0.727 l 0.516 -0.201 l -1.07 -0.574 z m -1.672 0.365 c -2.195 1.173 -3.505 2.421 -3.254 3.367 c 0.311 1.178 2.921 1.552 6.414 1.115 c -0.818 -0.541 -1.518 -1.252 -2.025 -2.104 l -2.059 0.738 l 0.924 -3.117 z m 10.584 1.584 c -0.462 0.728 -1.118 1.301 -1.883 1.674 c 0.451 -0.14 0.889 -0.282 1.314 -0.434 c 0.362 -0.318 0.684 -0.683 0.943 -1.096 l -0.375 -0.145 z" style="fill:#ececec;opacity:1;fill-opacity:0.941;stroke:none;fill-rule:nonzero"/>
 <g transform="matrix(0.42307692,0,0,0.42307692,6.3606939,7.5192308)">
  <g transform="matrix(0.49988464,0,0,0.49988464,-37.411065,7.9950011)">
   <!-- color: #004794 -->
  </g>
 </g>
 <g>
  <g transform="matrix(0.34782609,0,0,0.34782609,2.6435901,2.6456559)" style="fill:#ececec;fill-opacity:1">
   <path transform="matrix(2.875,0,0,2.875,97.067647,-33.481261)" d="m -25.406 14.5 c 2.304 0 4.367 1.303 5.281 3.313 l 1.219 -0.469 -1 3.469 -3.313 -1.844 1.281 -0.5 c -0.621 -1.31 -1.954 -2.125 -3.469 -2.125 -1.573 0 -2.996 0.94 -3.563 2.344 l -1.781 -0.688 c 0.845 -2.104 2.985 -3.5 5.344 -3.5 z m -5.5 4.719 3.313 1.781 -1.281 0.5 c 0.613 1.305 1.964 2.156 3.469 2.156 1.576 0 2.979 -0.91 3.563 -2.313 l 1.781 0.688 c -0.877 2.103 -2.979 3.469 -5.344 3.469 -2.292 0 -4.387 -1.339 -5.281 -3.344 l -1.219 0.438 z"/>
  </g>
  <g transform="matrix(0.49988464,0,0,0.49988464,-37.411065,7.9950011)">
   <!-- color: #004794 -->
  </g>
 </g>
 <g transform="translate(8.0007713,5.9997246)" style="stroke-dasharray:none;stroke-opacity:1;stroke-miterlimit:4;stroke:#000;stroke-width:1.5">
  <g transform="matrix(0.49988464,0,0,0.49988464,-37.411065,7.9950011)" style="stroke-width:3">
   <!-- color: #004794 -->
  </g>
 </g>
</svg>
